X: 19423
T: Jacks On The Mountain, The
R: jig
M: 6/8
K: Dmajor
dBA F^EF|B,^A,B, D2 =A,|B,EE E^DE|FBB AA/B/c|
dBA F^EF|B,^A,B, D2 =A,|B,EE F^EF|AF/G/A D2:|
DF/G/A cde|dB^A B2 B|AFE E^DE|
[1 DB,A, A,2 E|DFA cde|dB^A B2 B|AFE E^DE|AFD D2:|
[2 DB,A, A,2 G,|A,DD DEF|AF/G/A d2 B|AEE F^EF|AF/G/A D2||

